apps/extension/src/@talisman/theme/icons/talisman-hand.svg

<svg width="0.889em" height="1em" viewBox="0 0 16 18" fill="none" xmlns="http://www.w3.org/2000/svg">
<path d="M6.51605 12.5034C6.51605 13.3268 7.17884 13.9953 8 14.0047C8.82116 13.9953 9.48395 13.3268 9.48395 12.5034C9.48395 11.68 8.82116 11.0114 8 11.0021C7.17884 11.0114 6.51605 11.68 6.51605 12.5034Z" fill="currentColor"/>
<path fill-rule="evenodd" clip-rule="evenodd" d="M3.46682 9.91656C3.31463 10.248 2.86649 10.365 2.60861 10.1072L2.13588 9.63443C1.64727 9.14582 0.855071 9.14582 0.36646 9.63443C-0.122153 10.123 -0.122153 10.9152 0.36646 11.4039L4.18868 15.2261C5.10328 16.3113 6.47088 17.0022 8 17.0074C9.52912 17.0022 10.8967 16.3113 11.8113 15.2261L15.6335 11.4039C16.1222 10.9152 16.1222 10.123 15.6335 9.63443C15.1449 9.14582 14.3527 9.14582 13.8641 9.63443L13.3914 10.1072C13.1335 10.365 12.6854 10.248 12.5332 9.91656C12.5032 9.85123 12.4869 9.78117 12.4869 9.70929L12.4869 3.99535C12.4869 3.30435 11.9267 2.74418 11.2357 2.74418C10.5447 2.74418 9.98452 3.30435 9.98452 3.99535L9.98452 6.88734C9.98452 7.13603 9.72977 7.30483 9.49265 7.22989C9.34258 7.18245 9.23416 7.04582 9.23416 6.88843L9.23416 2.24373C9.23416 1.55841 8.68316 1.00178 8 0.992676C7.31684 1.00178 6.76584 1.55841 6.76584 2.24373L6.76584 6.88843C6.76584 7.04582 6.65742 7.18245 6.50735 7.22989C6.27023 7.30483 6.01548 7.13603 6.01548 6.88734L6.01548 3.99535C6.01548 3.30435 5.45531 2.74418 4.76431 2.74418C4.07331 2.74418 3.51314 3.30435 3.51314 3.99535L3.51314 9.70929C3.51314 9.78117 3.49682 9.85123 3.46682 9.91656ZM8 10.001C5.79687 10.0142 4.01381 12.5033 4.01381 12.5033C4.01381 12.5033 5.79687 14.9924 8 15.0056C10.2031 14.9924 11.9862 12.5033 11.9862 12.5033C11.9862 12.5033 10.2031 10.0142 8 10.001Z" fill="currentColor"/>
</svg>

<svg viewBox="0 0 16 18" fill="none" xmlns="http://www.w3.org/2000/svg">
    <path d="M6.516 12.503c0 .824.663 1.492 1.484 1.502a1.501 1.501 0 000-3.003 1.501 1.501 0 00-1.484 1.501z" fill="currentColor"/>
    <path fill-rule="evenodd" clip-rule="evenodd" d="M3.467 9.917c-.152.331-.6.448-.858.19l-.473-.473a1.251 1.251 0 10-1.77 1.77l3.823 3.822A4.994 4.994 0 008 17.007a4.994 4.994 0 003.811-1.78l3.822-3.823a1.251 1.251 0 10-1.769-1.77l-.473.473c-.258.258-.706.141-.858-.19a.495.495 0 01-.046-.208V3.995a1.251 1.251 0 00-2.502 0v2.892c0 .249-.255.418-.492.343a.364.364 0 01-.259-.342V2.244c0-.686-.55-1.242-1.234-1.251a1.251 1.251 0 00-1.234 1.25v4.645a.364.364 0 01-.259.342c-.237.075-.492-.094-.492-.343V3.995a1.251 1.251 0 00-2.502 0V9.71a.495.495 0 01-.046.208zM8 10c-2.203.013-3.986 2.502-3.986 2.502S5.797 14.993 8 15.006c2.203-.014 3.986-2.503 3.986-2.503S10.203 10.014 8 10.001z" fill="currentColor"/>
</svg>
